images/gen-slider/6.svg

<svg width="257" height="28" viewBox="0 0 257 28" fill="none" xmlns="http://www.w3.org/2000/svg">
<path fill-rule="evenodd" clip-rule="evenodd" d="M1.26484 27.2212C1.42211 27.3846 1.59787 27.4615 1.80139 27.4615H6.2788C6.51007 27.4615 6.71359 27.3846 6.88935 27.2212C7.04662 27.0577 7.12987 26.8558 7.12987 26.6538V15.9712C7.12987 15.5 7.29639 15.2596 7.61092 15.2596H7.73118C7.96245 15.2596 8.17522 15.3942 8.35098 15.6538L16.2697 26.6538C16.6582 27.1923 17.2688 27.4615 18.0736 27.4615H23.1523C23.3651 27.4615 23.5131 27.3846 23.5964 27.2212C23.6704 27.0577 23.6241 26.8558 23.4576 26.6538L13.5407 13.2308C13.2077 12.8269 13.1614 12.4519 13.4204 12.125L21.4409 1.375C21.6167 1.15385 21.6722 0.961538 21.6444 0.798077C21.6167 0.625 21.4872 0.538462 21.2744 0.538462H18.1199C17.4261 0.538462 16.8433 0.826923 16.3807 1.375L8.98004 11.5096C8.78577 11.7596 8.536 11.8846 8.24923 11.8846H7.68492C7.30564 11.8846 7.12987 11.6731 7.12987 11.2308V1.375C7.12987 1.15385 7.04662 0.961538 6.88935 0.798077C6.71359 0.625 6.51007 0.538462 6.2788 0.538462H0.423015C0.191744 0.538462 0.0622323 0.625 0.025229 0.807692C-0.0395269 0.990385 0.025229 1.21154 0.163992 1.45192C0.728293 2.26923 1.02432 3.33654 1.02432 4.65385V26.6538C1.02432 26.8558 1.08908 27.0577 1.26484 27.2212Z" fill="#FCFCFC"/>
<path fill-rule="evenodd" clip-rule="evenodd" d="M26.0663 27.2212C26.2329 27.3846 26.4179 27.4615 26.6214 27.4615H31.1543C31.3763 27.4615 31.5613 27.3846 31.7371 27.2212C31.8944 27.0577 31.9776 26.8558 31.9776 26.6538V18.3462C31.9776 18.1154 32.0516 17.9231 32.2089 17.7692C32.3754 17.625 32.5419 17.5481 32.7454 17.5481H36.307C38.6752 17.5481 40.7382 16.7212 42.5328 15.0481C44.3275 13.3846 45.2248 11.3846 45.2248 9.06731C45.2248 6.75 44.3275 4.74038 42.5328 3.05769C40.7382 1.375 38.6752 0.538462 36.307 0.538462H25.206C25.0025 0.538462 24.873 0.625 24.8082 0.807692C24.7527 0.990385 24.8082 1.21154 24.984 1.45192C25.5483 2.26923 25.8351 3.33654 25.8351 4.65385V26.6538C25.8351 26.8558 25.9091 27.0577 26.0663 27.2212ZM32.2089 13.8654C32.0516 13.7308 31.9776 13.5385 31.9776 13.2596V4.77885C31.9776 4.51923 32.0516 4.32692 32.2089 4.17308C32.3754 4.03846 32.5419 3.96154 32.7454 3.96154H34.9471C36.0757 3.96154 37.0008 4.46154 37.7502 5.45192C38.4902 6.44231 38.8603 7.625 38.8603 9.03846C38.8603 10.4519 38.4902 11.6538 37.7502 12.6154C37.0008 13.5962 36.0757 14.0769 34.9471 14.0769H32.7454C32.5419 14.0769 32.3754 14.0192 32.2089 13.8654Z" fill="#FCFCFC"/>
<path fill-rule="evenodd" clip-rule="evenodd" d="M53.9761 0.826923C53.8744 1.01923 53.8744 1.23077 53.9946 1.45192C54.1611 1.81731 54.2536 2.24038 54.2536 2.68269C54.2536 3.23077 54.1056 3.88462 53.8281 4.65385L45.7706 26.6538C45.6966 26.8558 45.7244 27.0577 45.8354 27.2212C45.9556 27.3846 46.1407 27.4615 46.3997 27.4615H49.1379C49.6837 27.4615 50.0445 27.1923 50.248 26.6538L52.311 20.6538C52.4312 20.2692 52.6903 20.0673 53.0973 20.0673H61.3953C61.8856 20.0673 62.1909 20.2692 62.3204 20.6538L64.3833 26.6538C64.5683 27.1923 64.9476 27.4615 65.4934 27.4615H70.3131C70.5444 27.4615 70.7109 27.3846 70.8311 27.2212C70.9422 27.0577 70.9607 26.8558 70.9052 26.6538L61.6821 1.42308C61.4786 0.836538 61.09 0.538462 60.498 0.538462H54.4664C54.2351 0.538462 54.0779 0.644231 53.9761 0.826923ZM57.4359 6.97115C57.5747 6.97115 57.6672 7.05769 57.7227 7.22115L60.683 15.7981C60.868 16.375 60.7015 16.6635 60.1649 16.6635H54.4942C53.9761 16.6635 53.8189 16.375 54.0224 15.7981L57.1029 7.22115C57.1399 7.05769 57.2602 6.97115 57.4359 6.97115Z" fill="#FCFCFC"/>
<path fill-rule="evenodd" clip-rule="evenodd" d="M95.1701 8.97115C95.3274 9.29808 95.5401 9.49038 95.8177 9.51923C96.0952 9.56731 96.3265 9.46154 96.53 9.19231L98.1859 7.19231C98.6114 6.71154 98.6762 6.27885 98.4172 5.91346C97.0295 4.11538 95.2719 2.67308 93.1442 1.60577C91.0072 0.538461 88.7038 0 86.2523 0C81.9229 0 78.4261 1.30769 75.7526 3.92308C73.0699 6.52885 71.7377 9.89423 71.7377 14C71.7377 18.1058 73.0976 21.4327 75.8451 24.0673C78.5741 26.6923 82.0709 28 86.3171 28C88.8518 28 91.1645 27.4904 93.2459 26.4808C95.3274 25.4808 97.0573 24.0192 98.4449 22.1154C98.7687 21.6346 98.6762 21.2308 98.1859 20.8846L96.9 19.9904C96.53 19.7212 96.1044 19.7885 95.6697 20.1923C94.5873 21.5288 93.2737 22.5962 91.7103 23.3942C90.1562 24.1827 88.565 24.5769 86.9461 24.5769C84.6334 24.5769 82.6075 23.5673 80.9053 21.5577C79.1847 19.5481 78.3243 17.0385 78.3243 14C78.3243 10.9615 79.1847 8.42308 80.9146 6.42308C82.6352 4.43269 84.6889 3.42308 87.0571 3.42308C90.6557 3.42308 93.3569 5.26923 95.1701 8.97115Z" fill="#FCFCFC"/>
<path fill-rule="evenodd" clip-rule="evenodd" d="M102.478 27.2212C102.645 27.3846 102.83 27.4615 103.033 27.4615H118.667C118.889 27.4615 119.074 27.3846 119.25 27.2212C119.407 27.0577 119.491 26.8558 119.491 26.6538V24.875C119.491 24.6538 119.407 24.4519 119.25 24.2885C119.074 24.125 118.889 24.0385 118.667 24.0385H109.157C108.926 24.0385 108.76 23.9615 108.612 23.8077C108.464 23.6635 108.39 23.4519 108.39 23.1923V16.2692C108.39 16.0385 108.464 15.8462 108.612 15.6827C108.76 15.5192 108.926 15.4231 109.157 15.4231H116.392C116.577 15.4231 116.752 15.3558 116.91 15.1731C117.067 15.0096 117.15 14.8077 117.15 14.5673V12.8462C117.15 12.6442 117.067 12.4712 116.91 12.2885C116.752 12.125 116.577 12.0288 116.392 12.0288H109.157C108.926 12.0288 108.76 11.9519 108.612 11.7885C108.464 11.625 108.39 11.4327 108.39 11.1923V4.80769C108.39 4.57692 108.464 4.38462 108.621 4.22115C108.787 4.05769 108.954 3.96154 109.157 3.96154H115.346C116.401 3.96154 117.483 4.16346 118.602 4.53846C118.862 4.64423 119.074 4.64423 119.222 4.53846C119.361 4.44231 119.435 4.25962 119.426 3.99038L119.047 1.34615C118.963 0.807692 118.658 0.538462 118.121 0.538462H101.618C101.414 0.538462 101.285 0.625 101.22 0.807692C101.165 0.990385 101.22 1.21154 101.396 1.45192C101.96 2.26923 102.247 3.33654 102.247 4.65385V26.6538C102.247 26.8558 102.321 27.0577 102.478 27.2212Z" fill="#FCFCFC"/>
<path fill-rule="evenodd" clip-rule="evenodd" d="M139.583 0.798077C139.426 0.961538 139.352 1.15385 139.352 1.375V11.1923C139.352 11.4327 139.26 11.625 139.102 11.7885C138.945 11.9519 138.769 12.0288 138.566 12.0288H130.434C129.916 12.0288 129.648 11.7596 129.648 11.1923V1.375C129.648 1.15385 129.565 0.961538 129.407 0.798077C129.25 0.625 129.047 0.538462 128.815 0.538462H122.913C122.71 0.538462 122.58 0.625 122.525 0.807692C122.469 0.990385 122.525 1.21154 122.701 1.45192C123.265 2.26923 123.552 3.33654 123.552 4.65385V26.6538C123.552 26.8558 123.626 27.0577 123.783 27.2212C123.94 27.3846 124.134 27.4615 124.329 27.4615H128.815C129.047 27.4615 129.25 27.3846 129.407 27.2212C129.565 27.0577 129.648 26.8558 129.648 26.6538V16.2692C129.648 15.7115 129.916 15.4231 130.434 15.4231H138.566C138.769 15.4231 138.945 15.5192 139.102 15.6827C139.26 15.8462 139.352 16.0385 139.352 16.2692V26.6538C139.352 26.8558 139.426 27.0577 139.583 27.2212C139.741 27.3846 139.944 27.4615 140.203 27.4615H144.616C144.847 27.4615 145.041 27.3846 145.217 27.2212C145.374 27.0577 145.467 26.8558 145.467 26.6538V1.375C145.467 1.15385 145.374 0.961538 145.217 0.798077C145.041 0.625 144.847 0.538462 144.616 0.538462H140.203C139.944 0.538462 139.741 0.625 139.583 0.798077Z" fill="#FCFCFC"/>
<path fill-rule="evenodd" clip-rule="evenodd" d="M166.355 13.8654C166.355 14.0481 166.263 14.2692 166.096 14.5673L158.057 26.6538C157.909 26.8558 157.854 27.0577 157.909 27.2212C157.956 27.3846 158.085 27.4615 158.316 27.4615H161.563C161.785 27.4615 162.026 27.3846 162.303 27.2212C162.581 27.0577 162.784 26.8558 162.914 26.6538L168.64 18.0673C168.899 17.6635 169.158 17.6635 169.417 18.0673L174.589 26.5C174.737 26.7692 174.968 27 175.282 27.1731C175.588 27.375 175.865 27.4615 176.106 27.4615H181.517C181.776 27.4615 181.952 27.375 182.035 27.1923C182.109 27.0096 182.063 26.7885 181.887 26.5L173.858 13.5769C173.654 13.3077 173.562 13.0673 173.58 12.8846C173.58 12.7115 173.691 12.4712 173.895 12.1538L181.064 1.375C181.212 1.18269 181.258 0.990385 181.184 0.807692C181.092 0.625 180.962 0.538462 180.777 0.538462H177.928C177.105 0.538462 176.531 0.826923 176.198 1.375L171.342 8.73077C171.064 9.14423 170.805 9.14423 170.555 8.73077L166.189 1.54808C165.773 0.884615 165.264 0.538462 164.672 0.538462H158.316C158.011 0.538462 157.835 0.673077 157.798 0.913462C157.734 1.15385 157.863 1.36538 158.168 1.54808C158.955 2.00962 159.759 2.89423 160.574 4.19231L166.05 13.1538C166.254 13.4615 166.355 13.7019 166.355 13.8654Z" fill="#FCFCFC"/>
<path fill-rule="evenodd" clip-rule="evenodd" d="M190.269 0.826923C190.167 1.01923 190.167 1.23077 190.287 1.45192C190.454 1.81731 190.546 2.24038 190.546 2.68269C190.546 3.23077 190.398 3.88462 190.121 4.65385L182.063 26.6538C181.989 26.8558 182.017 27.0577 182.128 27.2212C182.248 27.3846 182.433 27.4615 182.692 27.4615H185.431C185.976 27.4615 186.337 27.1923 186.541 26.6538L188.604 20.6538C188.724 20.2692 188.983 20.0673 189.39 20.0673H197.688C198.178 20.0673 198.483 20.2692 198.613 20.6538L200.676 26.6538C200.861 27.1923 201.24 27.4615 201.786 27.4615H206.606C206.837 27.4615 207.003 27.3846 207.124 27.2212C207.235 27.0577 207.253 26.8558 207.198 26.6538L197.975 1.42308C197.771 0.836538 197.383 0.538462 196.791 0.538462H190.759C190.528 0.538462 190.37 0.644231 190.269 0.826923ZM193.729 6.97115C193.867 6.97115 193.96 7.05769 194.015 7.22115L196.976 15.7981C197.161 16.375 196.994 16.6635 196.458 16.6635H190.787C190.269 16.6635 190.111 16.375 190.315 15.7981L193.396 7.22115C193.433 7.05769 193.553 6.97115 193.729 6.97115Z" fill="#FCFCFC"/>
<path fill-rule="evenodd" clip-rule="evenodd" d="M215.81 21.9615C215.81 22.1442 215.718 22.4135 215.579 22.7692L213.988 26.6923C213.784 27.2019 213.96 27.4615 214.478 27.4615H217.022C217.392 27.4615 217.66 27.4135 217.818 27.3269C217.975 27.2404 218.123 27.0288 218.253 26.6923L228.789 1.30769C228.872 1.10577 228.872 0.932692 228.761 0.778846C228.641 0.625 228.456 0.538462 228.197 0.538462H225.653C225.274 0.538462 225.015 0.596154 224.867 0.692308C224.728 0.798077 224.58 1 224.46 1.30769L219.437 13.7308C219.344 13.9135 219.242 14 219.131 14C219.002 14 218.882 13.9135 218.798 13.7308L213.794 1.30769C213.683 1 213.535 0.798077 213.377 0.692308C213.202 0.596154 212.933 0.538462 212.536 0.538462H206.957C206.689 0.538462 206.522 0.644231 206.495 0.826923C206.458 1.01923 206.559 1.24038 206.818 1.5C207.448 2.09615 208.104 3.15385 208.77 4.65385L215.579 21.1538C215.718 21.5096 215.81 21.7788 215.81 21.9615Z" fill="#FCFCFC"/>
<path fill-rule="evenodd" clip-rule="evenodd" d="M253.535 8.97115C253.693 9.29808 253.905 9.49038 254.183 9.51923C254.46 9.56731 254.692 9.46154 254.895 9.19231L256.551 7.19231C256.977 6.71154 257.041 6.27885 256.782 5.91346C255.395 4.11538 253.637 2.67308 251.509 1.60577C249.372 0.538461 247.069 0 244.617 0C240.288 0 236.791 1.30769 234.118 3.92308C231.435 6.52885 230.103 9.89423 230.103 14C230.103 18.1058 231.463 21.4327 234.21 24.0673C236.939 26.6923 240.436 28 244.682 28C247.217 28 249.53 27.4904 251.611 26.4808C253.692 25.4808 255.422 24.0192 256.81 22.1154C257.134 21.6346 257.041 21.2308 256.551 20.8846L255.265 19.9904C254.895 19.7212 254.47 19.7885 254.035 20.1923C252.952 21.5288 251.639 22.5962 250.075 23.3942C248.521 24.1827 246.93 24.5769 245.311 24.5769C242.999 24.5769 240.973 23.5673 239.27 21.5577C237.55 19.5481 236.689 17.0385 236.689 14C236.689 10.9615 237.55 8.42308 239.28 6.42308C241 4.43269 243.054 3.42308 245.422 3.42308C249.021 3.42308 251.722 5.26923 253.535 8.97115Z" fill="#FCFCFC"/>
</svg>

<svg width="257" height="28" fill="none" xmlns="http://www.w3.org/2000/svg"><path fill-rule="evenodd" clip-rule="evenodd" d="M1.265 27.221c.157.164.333.24.536.24H6.28a.865.865 0 00.61-.24.821.821 0 00.24-.567V15.97c0-.471.167-.711.482-.711h.12c.231 0 .444.134.62.394l7.919 11c.388.538.999.808 1.804.808h5.078c.213 0 .361-.077.444-.24.074-.164.028-.366-.138-.568L13.54 13.23c-.333-.404-.38-.78-.12-1.106l8.02-10.75c.176-.221.231-.413.203-.577-.027-.173-.157-.26-.37-.26H18.12c-.694 0-1.277.289-1.74.837L8.98 11.51c-.194.25-.444.375-.73.375h-.565c-.38 0-.555-.212-.555-.654V1.375a.81.81 0 00-.24-.577.844.844 0 00-.611-.26H.423c-.231 0-.36.087-.398.27-.065.182 0 .404.139.644.564.817.86 1.885.86 3.202v22c0 .202.065.404.24.567zm24.801 0a.77.77 0 00.555.24h4.533a.821.821 0 00.823-.808v-8.307a.77.77 0 01.232-.577c.166-.144.333-.22.536-.22h3.562c2.368 0 4.431-.828 6.226-2.5 1.794-1.664 2.692-3.664 2.692-5.982 0-2.317-.898-4.327-2.692-6.01C40.738 1.376 38.675.539 36.307.539H25.206c-.203 0-.333.087-.398.27-.055.182 0 .404.176.644.564.817.851 1.885.851 3.202v22a.81.81 0 00.231.567zm6.143-13.356c-.157-.134-.231-.326-.231-.605V4.779c0-.26.074-.452.23-.606.167-.135.334-.211.537-.211h2.202c1.129 0 2.054.5 2.803 1.49.74.99 1.11 2.173 1.11 3.586 0 1.414-.37 2.616-1.11 3.577-.75.981-1.674 1.462-2.803 1.462h-2.202a.736.736 0 01-.536-.212zM53.976.827c-.102.192-.102.404.019.625.166.365.259.788.259 1.23 0 .549-.148 1.203-.426 1.972l-8.057 22a.613.613 0 00.064.567c.12.164.306.24.565.24h2.738c.546 0 .907-.269 1.11-.807l2.063-6c.12-.385.38-.587.786-.587h8.298c.49 0 .796.202.925.587l2.063 6c.185.538.565.808 1.11.808h4.82c.231 0 .398-.077.518-.24a.673.673 0 00.074-.568l-9.223-25.23C61.48.836 61.09.537 60.498.537h-6.032a.525.525 0 00-.49.289zm3.46 6.144c.139 0 .231.087.287.25l2.96 8.577c.185.577.019.865-.518.865h-5.67c-.519 0-.676-.288-.473-.865l3.08-8.577c.038-.163.158-.25.334-.25zm37.734 2c.157.327.37.52.648.548.277.048.508-.057.712-.327l1.656-2c.425-.48.49-.913.231-1.279-1.388-1.798-3.145-3.24-5.273-4.307C91.007.538 88.704 0 86.252 0c-4.33 0-7.826 1.308-10.5 3.923C73.07 6.53 71.739 9.894 71.739 14s1.36 7.433 4.107 10.067C78.575 26.692 82.071 28 86.317 28c2.535 0 4.848-.51 6.929-1.52 2.081-1 3.811-2.46 5.199-4.365.324-.48.231-.884-.26-1.23L96.9 19.99c-.37-.269-.796-.201-1.23.202a12.12 12.12 0 01-3.96 3.202c-1.554.789-3.145 1.183-4.764 1.183-2.313 0-4.338-1.01-6.04-3.02-1.721-2.009-2.582-4.518-2.582-7.557 0-3.039.86-5.577 2.59-7.577 1.721-1.99 3.775-3 6.143-3 3.599 0 6.3 1.846 8.113 5.548zm7.308 18.25a.77.77 0 00.555.24h15.634a.823.823 0 00.824-.808v-1.778a.833.833 0 00-.241-.587c-.176-.163-.361-.25-.583-.25h-9.51a.703.703 0 01-.545-.23c-.148-.145-.222-.356-.222-.616V16.27c0-.23.074-.423.222-.586.148-.164.314-.26.545-.26h7.235c.185 0 .36-.067.518-.25a.845.845 0 00.24-.606v-1.72c0-.203-.083-.376-.24-.558-.158-.164-.333-.26-.518-.26h-7.235a.68.68 0 01-.545-.24.846.846 0 01-.222-.597V4.808a.81.81 0 01.231-.587c.166-.163.333-.26.536-.26h6.189c1.055 0 2.137.202 3.256.577.26.106.472.106.62 0 .139-.096.213-.278.204-.548l-.379-2.644c-.084-.538-.389-.808-.926-.808h-16.503c-.204 0-.333.087-.398.27-.055.182 0 .404.176.644.564.817.851 1.885.851 3.202v22a.81.81 0 00.231.567zM139.583.798a.801.801 0 00-.231.577v9.817a.83.83 0 01-.25.597.716.716 0 01-.536.24h-8.132c-.518 0-.786-.27-.786-.837V1.375a.807.807 0 00-.241-.577.774.774 0 00-.592-.26h-5.902c-.203 0-.333.087-.388.27-.056.182 0 .404.176.644.564.817.851 1.885.851 3.202v22a.81.81 0 00.231.567.75.75 0 00.546.24h4.486a.791.791 0 00.592-.24.819.819 0 00.241-.567V16.269c0-.557.268-.846.786-.846h8.132c.203 0 .379.096.536.26.158.163.25.355.25.586v10.385a.81.81 0 00.231.567c.158.164.361.24.62.24h4.413a.834.834 0 00.851-.808V1.376a.82.82 0 00-.25-.577.824.824 0 00-.601-.26h-4.413a.795.795 0 00-.62.26zm26.772 13.067c0 .183-.092.404-.259.702l-8.039 12.087c-.148.202-.203.404-.148.567.047.164.176.24.407.24h3.247c.222 0 .463-.076.74-.24.278-.163.481-.365.611-.567l5.726-8.587c.259-.404.518-.404.777 0l5.172 8.433c.148.27.379.5.693.673.306.202.583.289.824.289h5.411c.259 0 .435-.087.518-.27.074-.182.028-.404-.148-.692l-8.029-12.923c-.204-.27-.296-.51-.278-.692 0-.174.111-.414.315-.731l7.169-10.779c.148-.192.194-.385.12-.567-.092-.183-.222-.27-.407-.27h-2.849c-.823 0-1.397.289-1.73.837l-4.856 7.356c-.278.413-.537.413-.787 0l-4.366-7.183c-.416-.663-.925-1.01-1.517-1.01h-6.356c-.305 0-.481.135-.518.375-.064.24.065.452.37.635.787.462 1.591 1.346 2.406 2.644l5.476 8.962c.204.307.305.548.305.711z" fill="#FCFCFC"/><path fill-rule="evenodd" clip-rule="evenodd" d="M190.269.827c-.102.192-.102.404.018.625.167.365.259.788.259 1.23 0 .549-.148 1.203-.425 1.972l-8.058 22a.613.613 0 00.065.567c.12.164.305.24.564.24h2.739c.545 0 .906-.269 1.11-.807l2.063-6c.12-.385.379-.587.786-.587h8.298c.49 0 .795.202.925.587l2.063 6c.185.538.564.808 1.11.808h4.82c.231 0 .397-.077.518-.24a.675.675 0 00.074-.568l-9.223-25.23c-.204-.587-.592-.886-1.184-.886h-6.032a.524.524 0 00-.49.289zm3.46 6.144c.138 0 .231.087.286.25l2.961 8.577c.185.577.018.865-.518.865h-5.671c-.518 0-.676-.288-.472-.865l3.081-8.577c.037-.163.157-.25.333-.25zm22.081 14.991c0 .182-.092.451-.231.807l-1.591 3.923c-.204.51-.028.77.49.77h2.544c.37 0 .638-.049.796-.135.157-.087.305-.298.435-.635l10.536-25.384c.083-.202.083-.375-.028-.53-.12-.153-.305-.24-.564-.24h-2.544c-.379 0-.638.058-.786.154-.139.106-.287.308-.407.616l-5.023 12.423c-.093.183-.195.269-.306.269-.129 0-.249-.086-.333-.27l-5.004-12.422c-.111-.308-.259-.51-.417-.616-.175-.096-.444-.154-.841-.154h-5.579c-.268 0-.435.106-.462.289-.037.192.064.413.323.673.63.596 1.286 1.654 1.952 3.154l6.809 16.5c.139.356.231.625.231.808zm37.725-12.991c.158.327.37.52.648.548.277.048.509-.057.712-.327l1.656-2c.426-.48.49-.913.231-1.279-1.387-1.798-3.145-3.24-5.273-4.307C249.372.538 247.069 0 244.617 0c-4.329 0-7.826 1.308-10.499 3.923-2.683 2.606-4.015 5.971-4.015 10.077s1.36 7.433 4.107 10.067c2.729 2.625 6.226 3.933 10.472 3.933 2.535 0 4.848-.51 6.929-1.52 2.081-1 3.811-2.46 5.199-4.365.324-.48.231-.884-.259-1.23l-1.286-.895c-.37-.269-.795-.201-1.23.202a12.122 12.122 0 01-3.96 3.202c-1.554.789-3.145 1.183-4.764 1.183-2.312 0-4.338-1.01-6.041-3.02-1.72-2.009-2.581-4.518-2.581-7.557 0-3.039.861-5.577 2.591-7.577 1.72-1.99 3.774-3 6.142-3 3.599 0 6.3 1.846 8.113 5.548z" fill="#FCFCFC"/></svg>
